outputs/icons/action/unlock_alt_round.svg

<svg xmlns="http://www.w3.org/2000/svg" width="1200" height="1200" fill="none"><g clip-path="url(#a)"><path fill="#000" fill-rule="evenodd" d="M600 50c138 0 250 112 250 250v100h50c55 0 100 45 100 100v500c0 55-45 100-100 100H300c-55 0-100-45-100-100V500c0-55 45-100 100-100h450V300c0-82.5-67.5-150-150-150-68.5 0-128.019 46.5-145.019 112.5-7.003 26.997-34.488 42.986-60.987 35.987-26.994-7.004-42.985-33.99-35.986-60.987C386.509 127.001 486 50 600 50m0 600c-55 0-100 45-100 100s45 100 100 100 100-45 100-100-45-100-100-100"/></g><defs><clipPath id="a"><path fill="#fff" d="M0 0h1200v1200H0z"/></clipPath></defs></svg>

<svg width="1200" height="1200" viewBox="0 0 1200 1200" fill="none" xmlns="http://www.w3.org/2000/svg"><g clip-path="url(#clip0_755_1929)"><path fill-rule="evenodd" d="M850 400H900C955 400 1000 445 1000 500V1000C1000 1055 955 1100 900 1100H300C245 1100 200 1055 200 1000V500C200 445 245 400 300 400H750V300C750 217.5 682.5 150 600 150C531.5 150 472 196.5 455 262.5C448 289.5 420.5 305.5 394 298.5C367 291.5 351 264.5 358 237.5C386.5 127 486 50 600 50C738 50 850 162 850 300V400ZM600 650C545 650 500 695 500 750C500 805 545 850 600 850C655 850 700 805 700 750C700 695 655 650 600 650Z" fill="#1D1E23"/></g><defs><clipPath id="clip0_755_1929"><path width="24" fill="white" d="M0 0H1200V1200H0V0z"/></clipPath></defs></svg>
